packages/katcn/src/icons/svg/arrow5.svg

<svg width="24" height="25" viewBox="0 0 24 25" fill="none" xmlns="http://www.w3.org/2000/svg">
<path d="M11.9943 22.296H6.29018C5.38954 22.296 4.68904 21.7909 4.28875 21.0839C3.88846 20.2758 3.98854 19.3667 4.48889 18.6596L8.6919 12.7C8.79198 12.498 8.79198 12.195 8.6919 11.993L4.38882 5.93235C3.88846 5.22528 3.88846 4.31619 4.28875 3.50811C4.68904 2.80104 5.38954 2.29599 6.29018 2.29599H11.9943C13.0951 2.29599 14.1958 2.80104 14.7963 3.81114L19.3996 10.3768C20.2001 11.5889 20.2001 13.2051 19.3996 14.3162L14.7963 20.8818C14.1958 21.6899 13.0951 22.296 11.9943 22.296ZM6.29018 4.31619C6.09004 4.31619 6.09004 4.4172 5.98997 4.51821C5.98997 4.61922 5.8899 4.72023 5.98997 4.82124L10.193 10.7808C10.7934 11.6899 10.7934 12.9021 10.193 13.8111L5.98997 19.7707C5.98997 19.8717 5.98997 19.9728 5.98997 20.0738C5.98997 20.1748 6.09004 20.2758 6.29018 20.2758H11.9943C12.4946 20.2758 12.8949 20.0738 13.1951 19.6697L17.7984 13.1041C18.0986 12.599 18.0986 11.993 17.7984 11.4879L13.1951 4.92225C12.8949 4.51821 12.4946 4.31619 11.9943 4.31619H6.29018Z" fill="black"/>
</svg>

<svg xmlns="http://www.w3.org/2000/svg" fill="none" viewBox="0 0 24 25"><path fill="#000" d="M11.994 22.296H6.29c-.9 0-1.601-.505-2.001-1.212-.4-.808-.3-1.717.2-2.424l4.203-5.96a.87.87 0 0 0 0-.707l-4.303-6.06c-.5-.708-.5-1.617-.1-2.425.4-.707 1.1-1.212 2.001-1.212h5.704c1.101 0 2.202.505 2.802 1.515l4.604 6.566c.8 1.212.8 2.828 0 3.94l-4.604 6.565c-.6.808-1.7 1.414-2.802 1.414M6.29 4.316c-.2 0-.2.101-.3.202 0 .101-.1.202 0 .303l4.203 5.96c.6.909.6 2.121 0 3.03l-4.203 5.96v.303c0 .1.1.202.3.202h5.704q.75 0 1.201-.606l4.603-6.566c.3-.505.3-1.111 0-1.616l-4.603-6.566q-.45-.606-1.2-.606z"/></svg>
